;FLAVOR:Marlin
;TIME:13810
;Filament used: 7.13825m
;Layer height: 0.2
;MINX:32.184
;MINY:40.782
;MINZ:0.2
;MAXX:187.816
;MAXY:194.201
;MAXZ:6.2
;Generated with Cura_SteamEngine 4.7.0
M140 S60
M105
M190 S60
M104 S225
M105
M109 S225
M82 ;absolute extrusion mode
; Ender 3 Custom Start G-code
G92 E0 ; Reset Extruder
G28 ; Home all axes
G1 Z2.0 F3000 ; Move Z Axis up little to prevent scratching of Heat Bed
G1 X0.1 Y20 Z0.3 F5000.0 ; Move to start position
G1 X0.1 Y200.0 Z0.3 F1500.0 E15 ; Draw the first line
G1 X0.4 Y200.0 Z0.3 F5000.0 ; Move to side a little
G1 X0.4 Y20 Z0.3 F1500.0 E30 ; Draw the second line
G92 E0 ; Reset Extruder
G1 Z2.0 F3000 ; Move Z Axis up little to prevent scratching of Heat Bed
G1 X5 Y20 Z0.3 F5000.0 ; Move over to prevent blob squish
G92 E0
G92 E0
G1 F1500 E-6.5
;LAYER_COUNT:31
;LAYER:0
M107
;MESH:PVC Shingle Clip.stl(3)
G0 F6000 X57.495 Y113.565 Z0.2
;TYPE:WALL-INNER
G1 F1500 E0
G1 F1200 X57.94 Y112.693 E0.03256
G1 X58.176 Y112.458 E0.04364
G1 X54.523 Y99.312 E0.49744
G1 X53.723 Y99.219 E0.52423
G1 X53.389 Y99.823 E0.54719
G1 X52.889 Y100.356 E0.57149
G1 X52.273 Y100.746 E0.59574
G1 X51.587 Y100.969 E0.61973
G1 X50.856 Y101.016 E0.6441
G1 X50.116 Y100.873 E0.66917
G1 X49.669 Y101.506 E0.69494
G1 X56.786 Y113.589 E1.16135
G1 X57.495 Y113.565 E1.18495
G0 F6000 X57.246 Y113.173
;TYPE:WALL-OUTER
G1 F1200 X57.613 Y112.453 E1.21183
G1 X57.728 Y112.339 E1.21721
G1 X54.21 Y99.678 E1.65427
G1 X53.943 Y99.647 E1.66321
G1 X53.714 Y100.061 E1.67895
G1 X53.147 Y100.666 E1.70653
G1 X52.447 Y101.11 E1.7341
G1 X51.661 Y101.365 E1.76158
G1 X50.829 Y101.418 E1.78931
G1 X50.294 Y101.315 E1.80743
G1 X50.145 Y101.526 E1.81602
G1 X57.01 Y113.181 E2.26592
G1 X57.246 Y113.173 E2.27377
G1 F1500 E-4.22623
G0 F6000 X57.513 Y113.309
G0 X57.99 Y112.408
G0 X57.51 Y109.425
G0 X56.128 Y109.809
G0 X67.971 Y113.227
G0 X67.971 Y114.706
G0 X84.977 Y117.92
G0 X68.8 Y117.121
G0 X65.435 Y117.539
G0 X63.155 Y120.211
G0 X63.429 Y123.711
G0 X66.101 Y125.991
G0 X67.247 Y126.204
G0 X128.925 Y126.23
G0 X142.319 Y128.763
;TYPE:WALL-INNER
G1 F1500 E2.27377
G1 F1200 X141.945 Y128.744 E2.28623
G1 X139.498 Y128.615 E2.36773
G1 X138.593 Y128.613 E2.39783
G1 X83.004 Y128.574 E4.24673
G1 X65.601 Y128.452 E4.82557
G1 X63.256 Y127.257 E4.9131
G1 X61.783 Y125.784 E4.98239
G1 X61.155 Y124.87 E5.01927
G1 X60.871 Y124.07 E5.04751
G1 X45.683 Y98.286 E6.04281
G1 X44.824 Y98.151 E6.07173
G1 X44.384 Y98.591 E6.09243
G1 X43.884 Y98.846 E6.1111
G1 X43.328 Y98.934 E6.12982
G1 X42.773 Y98.846 E6.14851
G1 X42.273 Y98.591 E6.16718
G1 X41.877 Y98.195 E6.1858
G1 X41.623 Y97.697 E6.2044
G1 X41.536 Y97.141 E6.22311
G1 X41.623 Y96.583 E6.2419
G1 X41.875 Y96.089 E6.26034
G1 X42.277 Y95.687 E6.27925
G1 X42.771 Y95.435 E6.2977
G1 X43.328 Y95.348 E6.31645
G1 X43.886 Y95.435 E6.33523
G1 X44.38 Y95.687 E6.35367
G1 X44.609 Y95.917 E6.36447
G1 X44.803 Y95.994 E6.37141
G1 X45.628 Y96.123 E6.39918
G1 X49.149 Y95.566 E6.51775
G1 X52.324 Y93.948 E6.63627
G1 X54.845 Y91.428 E6.75483
G1 X56.462 Y88.252 E6.87337
G1 X57.019 Y84.732 E6.9919
G1 X56.462 Y81.212 E7.11043
G1 X54.845 Y78.036 E7.22897
G1 X52.324 Y75.516 E7.34752
G1 X49.149 Y73.898 E7.46605
G1 X45.628 Y73.341 E7.58461
G1 X42.108 Y73.898 E7.70314
G1 X38.933 Y75.516 E7.82167
G1 X36.413 Y78.036 E7.9402
G1 X36.17 Y78.511 E7.95795
G1 X36.087 Y79.036 E7.97562
G1 X35.833 Y79.534 E7.99422
G1 X35.436 Y79.931 E8.01289
G1 X34.938 Y80.185 E8.03149
G1 X34.382 Y80.273 E8.05021
G1 X33.826 Y80.185 E8.06893
G1 X33.328 Y79.931 E8.08752
G1 X32.931 Y79.534 E8.1062
G1 X32.677 Y79.036 E8.12479
G1 X32.589 Y78.48 E8.14351
G1 X32.677 Y77.922 E8.1623
G1 X32.929 Y77.428 E8.18075
G1 X33.33 Y77.027 E8.19961
G1 X33.826 Y76.774 E8.21813
G1 X34.382 Y76.687 E8.23685
G1 X34.701 Y76.739 E8.2476
G1 X37.667 Y73.773 E8.38711
G1 X41.441 Y71.85 E8.52799
G1 X45.628 Y71.187 E8.66898
G1 X49.816 Y71.85 E8.81001
G1 X53.59 Y73.773 E8.95089
G1 X56.587 Y76.77 E9.09186
G1 X57.916 Y79.381 E9.1893
G1 X58.585 Y79.381 E9.21156
G1 X58.934 Y79.415 E9.22322
G1 X59.269 Y79.483 E9.23459
G1 X59.589 Y79.58 E9.24571
G1 X59.927 Y79.719 E9.25786
G1 X60.229 Y79.88 E9.26925
G1 X60.512 Y80.07 E9.28058
G1 X60.787 Y80.296 E9.29242
G1 X61.014 Y80.523 E9.3031
G1 X61.25 Y80.812 E9.31551
G1 X61.427 Y81.076 E9.32608
G1 X61.599 Y81.4 E9.33828
G1 X61.726 Y81.704 E9.34924
G1 X61.829 Y82.048 E9.36118
G1 X61.896 Y82.381 E9.37248
G1 X61.928 Y82.718 E9.38374
G1 X61.929 Y83.069 E9.39542
G1 X61.896 Y83.407 E9.40671
G1 X61.826 Y83.753 E9.41845
G1 X61.728 Y84.077 E9.42971
G1 X61.59 Y84.409 E9.44167
G1 X61.437 Y84.695 E9.45246
G1 X61.239 Y84.993 E9.46436
G1 X61.026 Y85.252 E9.47551
G1 X60.785 Y85.494 E9.48687
G1 X60.508 Y85.721 E9.49878
G1 X60.228 Y85.908 E9.50998
G1 X59.912 Y86.077 E9.5219
G1 X59.601 Y86.207 E9.53311
G1 X58.921 Y86.41 E9.55671
G1 X58.842 Y86.812 E9.57034
G1 X58.51 Y88.919 E9.64128
G1 X56.587 Y92.694 E9.78219
G1 X55.163 Y94.117 E9.84915
G1 X59.958 Y111.367 E10.44464
G1 X60.241 Y111.48 E10.45478
G1 X60.36 Y111.885 E10.46881
G1 X60.719 Y112.58 E10.49483
G1 X61.205 Y113.194 E10.52088
G1 X61.796 Y113.705 E10.54686
G1 X62.474 Y114.097 E10.57291
G1 X63.161 Y114.333 E10.59707
G1 X63.185 Y114.492 E10.60242
G1 X68.181 Y114.492 E10.76859
G1 X68.181 Y114.507 E10.76909
G1 X142.06 Y118.378 E13.22968
G1 X142.54 Y118.403 E13.24567
G1 X142.183 Y118.724 E13.25426
G1 X139.664 Y120.993 E13.36702
G1 X68.796 Y117.292 E15.72731
G1 X66.816 Y117.292 E15.79317
G1 X66.602 Y117.31 E15.80031
G1 X65.513 Y117.693 E15.8387
G1 X64.563 Y118.347 E15.87706
G1 X63.816 Y119.223 E15.91536
G1 X63.318 Y120.264 E15.95374
G1 X63.109 Y121.397 E15.99206
G1 X63.199 Y122.546 E16.03039
G1 X63.583 Y123.633 E16.06873
G1 X64.236 Y124.583 E16.10707
G1 X65.113 Y125.331 E16.14541
G1 X66.154 Y125.828 E16.18378
G1 X67.263 Y126.033 E16.22129
G1 X140.252 Y126.01 E18.64891
G1 X140.285 Y125.374 E18.6701
G1 X140.556 Y125.827 E18.67733
G1 X142.126 Y128.442 E18.77878
G1 X142.319 Y128.763 E18.78573
G0 F6000 X143.049 Y129.201
;TYPE:WALL-OUTER
G1 F1200 X139.487 Y129.015 E18.90436
G1 X138.592 Y129.013 E18.93413
G1 X83.001 Y128.974 E20.7831
G1 X65.504 Y128.851 E21.36506
G1 X63.017 Y127.584 E21.4579
G1 X61.473 Y126.04 E21.53052
G1 X60.796 Y125.055 E21.57027
G1 X60.507 Y124.24 E21.59904
G1 X45.434 Y98.652 E22.58678
G1 X44.963 Y98.578 E22.60264
G1 X44.623 Y98.918 E22.61863
G1 X44.009 Y99.231 E22.64155
G1 X43.328 Y99.339 E22.66448
G1 X42.648 Y99.231 E22.68738
G1 X42.034 Y98.918 E22.71031
G1 X41.55 Y98.434 E22.73307
G1 X41.238 Y97.822 E22.75592
G1 X41.131 Y97.141 E22.77885
G1 X41.238 Y96.46 E22.80178
G1 X41.549 Y95.849 E22.82458
G1 X42.037 Y95.361 E22.84753
G1 X42.648 Y95.05 E22.87034
G1 X43.328 Y94.943 E22.89323
G1 X44.009 Y95.05 E22.91616
G1 X44.62 Y95.361 E22.93896
G1 X44.834 Y95.576 E22.94905
G1 X44.909 Y95.606 E22.95174
G1 X45.628 Y95.718 E22.97594
G1 X49.024 Y95.181 E23.0903
G1 X52.086 Y93.62 E23.20461
G1 X54.517 Y91.19 E23.31893
G1 X56.077 Y88.127 E23.43326
G1 X56.614 Y84.732 E23.54758
G1 X56.077 Y81.337 E23.6619
G1 X54.517 Y78.274 E23.77623
G1 X52.086 Y75.844 E23.89055
G1 X49.024 Y74.283 E24.00487
G1 X45.628 Y73.746 E24.11922
G1 X42.233 Y74.283 E24.23354
G1 X39.171 Y75.844 E24.34786
G1 X36.74 Y78.274 E24.46218
G1 X36.555 Y78.636 E24.4757
G1 X36.472 Y79.161 E24.49338
G1 X36.16 Y79.773 E24.51623
G1 X35.675 Y80.258 E24.53904
G1 X35.063 Y80.57 E24.56189
G1 X34.382 Y80.678 E24.58482
G1 X33.701 Y80.57 E24.60776
G1 X33.089 Y80.258 E24.6306
G1 X32.604 Y79.773 E24.65342
G1 X32.292 Y79.161 E24.67626
G1 X32.184 Y78.48 E24.6992
G1 X32.292 Y77.799 E24.72213
G1 X32.603 Y77.188 E24.74493
G1 X33.091 Y76.7 E24.76789
G1 X33.701 Y76.389 E24.79066
G1 X34.384 Y76.282 E24.81365
G1 X34.563 Y76.311 E24.81969
G1 X37.428 Y73.446 E24.95445
G1 X41.316 Y71.465 E25.09958
G1 X45.628 Y70.782 E25.24479
G1 X49.941 Y71.465 E25.39002
G1 X53.829 Y73.446 E25.53516
G1 X56.913 Y76.53 E25.68022
G1 X58.161 Y78.981 E25.7717
G1 X58.603 Y78.981 E25.7864
G1 X58.993 Y79.019 E25.79943
G1 X59.37 Y79.095 E25.81222
G1 X59.726 Y79.203 E25.8246
G1 X60.094 Y79.355 E25.83784
G1 X60.435 Y79.537 E25.8507
G1 X60.751 Y79.749 E25.86335
G1 X61.058 Y80.001 E25.87656
G1 X61.311 Y80.254 E25.88846
G1 X61.567 Y80.567 E25.90191
G1 X61.773 Y80.875 E25.91424
G1 X61.959 Y81.224 E25.92739
G1 X62.104 Y81.573 E25.93996
G1 X62.217 Y81.949 E25.95302
G1 X62.292 Y82.324 E25.96574
G1 X62.328 Y82.7 E25.9783
G1 X62.329 Y83.087 E25.99117
G1 X62.292 Y83.466 E26.00384
G1 X62.214 Y83.854 E26.017
G1 X62.106 Y84.209 E26.02934
G1 X61.951 Y84.581 E26.04275
G1 X61.782 Y84.898 E26.0547
G1 X61.559 Y85.234 E26.06811
G1 X61.326 Y85.517 E26.0803
G1 X61.05 Y85.794 E26.09331
G1 X60.745 Y86.044 E26.10642
G1 X60.432 Y86.253 E26.11894
G1 X60.092 Y86.435 E26.13177
G1 X59.731 Y86.585 E26.14477
G1 X59.267 Y86.724 E26.16088
G1 X59.236 Y86.882 E26.16624
G1 X58.895 Y89.044 E26.23903
G1 X56.914 Y92.933 E26.3842
G1 X55.611 Y94.235 E26.44546
G1 X60.29 Y111.069 E27.02659
G1 X60.408 Y111.116 E27.03081
G1 X60.558 Y111.139 E27.03586
G1 X60.733 Y111.735 E27.05652
G1 X61.057 Y112.362 E27.07999
G1 X61.495 Y112.916 E27.10348
G1 X62.029 Y113.378 E27.12697
G1 X62.641 Y113.731 E27.15047
G1 X63.315 Y113.963 E27.17418
G1 X63.515 Y113.991 E27.18089
G1 X63.53 Y114.092 E27.18429
G1 X68.581 Y114.092 E27.35229
G1 X68.581 Y114.127 E27.35345
G1 X143.525 Y118.055 E29.84952
G1 X139.809 Y121.401 E30.01583
G1 X68.786 Y117.692 E32.38129
G1 X66.832 Y117.692 E32.44628
G1 X66.686 Y117.704 E32.45115
G1 X65.696 Y118.053 E32.48606
G1 X64.833 Y118.647 E32.52091
G1 X64.154 Y119.443 E32.55571
G1 X63.702 Y120.389 E32.59058
G1 X63.512 Y121.418 E32.62538
G1 X63.594 Y122.462 E32.66021
G1 X63.943 Y123.45 E32.69506
G1 X64.536 Y124.313 E32.72989
G1 X65.333 Y124.993 E32.76474
G1 X66.279 Y125.444 E32.79959
G1 X67.3 Y125.633 E32.83413
G1 X139.872 Y125.61 E35.24788
G1 X139.954 Y124.045 E35.30001
G1 X143.049 Y129.201 E35.50002
G0 F6000 X142.599 Y128.93
G0 X141.847 Y128.191
G0 X141.607 Y128.334
;TYPE:SKIN
G1 F1200 X139.508 Y128.225 E35.56993
G1 X138.593 Y128.223 E35.60036
G1 X83.004 Y128.184 E37.44926
G1 X65.694 Y128.062 E38.025
G1 X63.487 Y126.938 E38.10738
G1 X62.089 Y125.54 E38.17314
G1 X61.504 Y124.688 E38.20751
G1 X61.226 Y123.904 E38.23518
G1 X45.925 Y97.929 E39.23786
G1 X44.689 Y97.735 E39.27947
G1 X44.153 Y98.272 E39.30471
G1 X43.766 Y98.469 E39.31915
G1 X43.328 Y98.538 E39.3339
G1 X42.891 Y98.469 E39.34862
G1 X42.504 Y98.272 E39.36306
G1 X42.196 Y97.964 E39.37755
G1 X42 Y97.579 E39.39192
G1 X41.932 Y97.141 E39.40666
G1 X42 Y96.701 E39.42147
G1 X42.194 Y96.32 E39.43569
G1 X42.508 Y96.006 E39.45046
G1 X42.889 Y95.812 E39.46468
G1 X43.328 Y95.743 E39.47946
G1 X43.768 Y95.812 E39.49427
G1 X44.145 Y96.004 E39.50834
G1 X44.39 Y96.25 E39.51989
G1 X44.7 Y96.372 E39.53097
G1 X45.628 Y96.517 E39.56221
G1 X49.271 Y95.942 E39.68488
G1 X52.556 Y94.268 E39.8075
G1 X55.165 Y91.66 E39.9302
G1 X56.838 Y88.374 E40.05284
G1 X57.413 Y84.732 E40.17548
G1 X56.838 Y81.09 E40.29811
G1 X55.165 Y77.804 E40.42075
G1 X52.556 Y75.196 E40.54345
G1 X49.271 Y73.522 E40.66608
G1 X45.628 Y72.947 E40.78874
G1 X41.986 Y73.522 E40.91138
G1 X38.701 Y75.196 E41.03401
G1 X36.094 Y77.804 E41.15665
G1 X35.794 Y78.388 E41.17849
G1 X35.71 Y78.918 E41.19634
G1 X35.514 Y79.303 E41.21071
G1 X35.205 Y79.612 E41.22524
G1 X34.82 Y79.808 E41.23961
G1 X34.382 Y79.877 E41.25436
G1 X33.944 Y79.808 E41.26911
G1 X33.559 Y79.612 E41.28348
G1 X33.25 Y79.303 E41.29801
G1 X33.054 Y78.918 E41.31238
G1 X32.985 Y78.479 E41.32716
G1 X33.054 Y78.041 E41.34191
G1 X33.248 Y77.659 E41.35616
G1 X33.561 Y77.346 E41.37088
G1 X33.944 Y77.151 E41.38517
G1 X34.382 Y77.083 E41.39992
G1 X34.836 Y77.156 E41.41521
G1 X37.898 Y74.092 E41.55929
G1 X41.559 Y72.227 E41.69594
G1 X45.628 Y71.583 E41.83296
G1 X49.698 Y72.227 E41.97001
G1 X53.359 Y74.092 E42.10667
G1 X56.266 Y76.999 E42.2434
G1 X57.677 Y79.771 E42.34686
G1 X58.567 Y79.771 E42.37646
G1 X58.876 Y79.801 E42.38679
G1 X59.175 Y79.862 E42.39693
G1 X59.454 Y79.946 E42.40663
G1 X59.761 Y80.073 E42.41768
G1 X60.03 Y80.216 E42.42781
G1 X60.27 Y80.377 E42.43742
G1 X60.539 Y80.598 E42.449
G1 X60.716 Y80.775 E42.45733
G1 X60.937 Y81.045 E42.46893
G1 X61.087 Y81.269 E42.4779
G1 X61.25 Y81.575 E42.48943
G1 X61.355 Y81.827 E42.49851
G1 X61.455 Y82.16 E42.51007
G1 X61.51 Y82.436 E42.51943
G1 X61.538 Y82.735 E42.52942
G1 X61.539 Y83.052 E42.53996
G1 X61.51 Y83.351 E42.54996
G1 X61.449 Y83.654 E42.56024
G1 X61.362 Y83.941 E42.57021
G1 X61.237 Y84.242 E42.58105
G1 X61.105 Y84.49 E42.5904
G1 X60.926 Y84.76 E42.60117
G1 X60.741 Y84.985 E42.61086
G1 X60.521 Y85.206 E42.62123
G1 X60.274 Y85.408 E42.63184
G1 X60.021 Y85.577 E42.64196
G1 X59.753 Y85.721 E42.65208
G1 X59.471 Y85.838 E42.66224
G1 X58.584 Y86.104 E42.69304
G1 X58.458 Y86.744 E42.71473
G1 X58.133 Y88.801 E42.784
G1 X56.268 Y92.463 E42.92068
G1 X54.726 Y94.002 E42.99314
G1 X59.634 Y111.657 E43.60262
G1 X59.921 Y111.772 E43.6129
G1 X59.997 Y112.031 E43.62188
G1 X60.39 Y112.792 E43.65036
G1 X60.922 Y113.465 E43.6789
G1 X61.569 Y114.024 E43.70734
G1 X62.312 Y114.454 E43.73589
G1 X62.811 Y114.626 E43.75344
G1 X62.85 Y114.882 E43.76206
G1 X67.886 Y114.882 E43.92955
G1 X141.579 Y118.744 E46.38396
G1 X139.523 Y120.595 E46.47597
G1 X68.806 Y116.902 E48.83123
G1 X66.8 Y116.902 E48.89795
G1 X66.52 Y116.926 E48.9073
G1 X65.335 Y117.342 E48.94907
G1 X64.3 Y118.055 E48.99087
G1 X63.486 Y119.009 E49.03258
G1 X62.944 Y120.143 E49.07439
G1 X62.717 Y121.376 E49.11608
G1 X62.815 Y122.628 E49.15785
G1 X63.232 Y123.812 E49.1996
G1 X63.944 Y124.846 E49.24136
G1 X64.899 Y125.661 E49.28312
G1 X66.033 Y126.202 E49.32491
G1 X67.228 Y126.423 E49.36533
G1 X140.446 Y126.4 E51.80057
G1 X141.607 Y128.334 E51.87559
G1 F1500 E45.37559
G0 F6000 X141.847 Y128.192
G0 X140.45 Y126.034
G0 X67.279 Y125.872
G0 X66.205 Y125.674
G0 X65.202 Y125.195
G0 X64.357 Y124.474
G0 X63.728 Y123.56
G0 X63.358 Y122.512
G0 X63.272 Y121.405
G0 X63.472 Y120.315
G0 X63.952 Y119.312
G0 X64.672 Y118.468
G0 X65.586 Y117.838
G0 X66.636 Y117.468
G0 X68.792 Y117.453
G0 X88.983 Y118.54
G0 X67.971 Y114.706
G0 X67.971 Y113.227
G0 X56.128 Y109.809
G0 X57.51 Y109.425
G0 X58.301 Y112.498
G0 X58.613 Y112.573
G1 F1500 E51.87559
G1 F1200 X54.829 Y98.955 E52.34569
G1 X53.508 Y98.802 E52.38992
G1 X53.072 Y99.59 E52.41987
G1 X52.638 Y100.052 E52.44096
G1 X52.105 Y100.391 E52.46197
G1 X51.515 Y100.582 E52.48259
G1 X50.878 Y100.623 E52.50382
G1 X49.943 Y100.442 E52.5355
G1 X49.205 Y101.487 E52.57805
G1 X56.568 Y113.987 E53.06057
G1 X57.738 Y113.947 E53.0995
G1 X58.257 Y112.928 E53.13754
G1 X58.613 Y112.573 E53.15426
G1 F1500 E46.65426
G0 F6000 X58.301 Y112.498
G0 X58.176 Y112.666
G0 X57.616 Y113.755
G0 X55.702 Y114.882
G0 X61.136 Y124.487
G0 X61.551 Y124.342
G1 F1500 E53.15426
G1 F1200 X64.464 Y127.255 E53.29128
G0 F6000 X64.264 Y127.647
G0 X65.416 Y128.234
G0 X65.616 Y127.842
G1 F1200 X61.031 Y123.256 E53.50697
G0 F6000 X60.65 Y123.479
G0 X59.839 Y122.102
G0 X60.22 Y121.879
G1 F1200 X66.244 Y127.904 E53.79034
G0 F6000 X66.813 Y127.907
G1 F1200 X64.073 Y125.167 E53.91922
G0 F6000 X63.744 Y124.838
G1 F1200 X59.408 Y120.503 E54.12315
G0 F6000 X59.029 Y120.725
G0 X58.217 Y119.348
G0 X58.597 Y119.126
G1 F1200 X62.943 Y123.472 E54.32757
G0 F6000 X62.655 Y122.617
G1 F1200 X57.786 Y117.749 E54.55657
G0 F6000 X57.406 Y117.971
G0 X56.596 Y116.595
G0 X56.976 Y116.373
G1 F1200 X62.606 Y122.003 E54.82139
G0 F6000 X62.558 Y121.389
G1 F1200 X56.165 Y114.996 E55.1221
G0 F6000 X55.784 Y115.217
G0 X55.494 Y114.568
G0 X56.677 Y113.786
G0 X56.984 Y113.692
G0 X56.998 Y114.132
G1 F1200 X62.844 Y119.979 E55.3971
G0 F6000 X63.027 Y119.596
G1 F1200 X57.545 Y114.113 E55.65498
